X: 18174
T: Humours Of Ennistymon, The
R: jig
M: 6/8
K: Gmajor
dc|BGB BF/G/B|AFA AF/G/A|B3 DF/G/B|def gdc|
BF/G/B BAG|AcA/A/ DFA|df/g/d cAF|AGF G3||
BF/G/B BF/G/B|AF/G/A AF/G/A|B3 A3|GB/c/d gdc|
BDD BAG|ADD ABc|df/g/d cAF|AGF G3||
f3 fed|cAG FGA|g3 ge/f/g|afd d2e|
f/g/ad e/f/ed|cAG FGA|BF/G/B cAF|AGF G3||
fdd fdd|cAG FGA|g3 ge/f/g|afd d2e|
f2e e/f/ed|cAG FGA|BF/G/B cAD|AGG G3|
f3 fed|cAA AGF|g3 gag|gfd dcA|
B/c/de fdd|cAG E/F/GA|BF/G/B cAF|AGG G3||

